!!!COM:	de Orto, Marbrianus
!!!CDT:	~1460///-1529//
!!!OPR:	Missa Mi mi (Missa Petite camusette)
!!!ONM:	5
!!!OTL:	Agnus Dei
!!!AGN:	Mass; Agnus Dei
!!!SCT:	Ort1005e
!!!SCA:	Ort1005e
!!!voices-OPR:	4
!!!voices:	4
**kern	**text	**kern	**text	**kern	**text	**kern	**text
*staff4	*staff4	*staff3	*staff3	*staff2	*staff2	*staff1	*staff1
*Ivox	*	*Ivox	*	*Ivox	*	*Ivox	*
*I"Bassus	*	*I"Tenor	*	*I"Altus	*	*I"Superius	*
*I'B	*	*I'T	*	*I'A	*	*I'S	*
*>[A,B,C]	*>[A,B,C]	*>[A,B,C]	*>[A,B,C]	*>[A,B,C]	*>[A,B,C]	*>[A,B,C]	*>[A,B,C]
*>A	*>A	*>A	*>A	*>A	*>A	*>A	*>A
*clefF4	*	*clefGv2	*	*clefGv2	*	*clefG2	*
*k[]	*	*k[]	*	*k[]	*	*k[]	*
*M2/1	*	*M2/1	*	*M2/1	*	*M2/1	*
*met(C)	*	*met(C)	*	*met(C)	*	*met(C)	*
!!section: Agnus Dei I
!!!OMD: Agnus Dei I
=1-	=1-	=1-	=1-	=1-	=1-	=1-	=1-
0r	.	0r	.	1A	A-	1.a	A-
.	.	.	.	2D/	.	.	.
.	.	.	.	2A/	.	2e/	-gnus
=2	=2	=2	=2	=2	=2	=2	=2
0r	.	0r	.	2G/	-gnus	2b\	De-
.	.	.	.	2.A/	De-	2cc\	.
.	.	.	.	.	.	1b	-i,
.	.	.	.	8G/L	.	.	.
.	.	.	.	8F/J	.	.	.
.	.	.	.	2G/	.	.	.
=3	=3	=3	=3	=3	=3	=3	=3
0r	.	0A	A-	1c	-i,	1e	A-
.	.	.	.	2r	.	2e/	-gnus
.	.	.	.	[2F/	A-	[2A/	De-
=4	=4	=4	=4	=4	=4	=4	=4
0r	.	1c	.	2F/]	.	2A/]	.
.	.	.	.	2E/	.	1e	.
.	.	1A	.	1F	.	.	.
.	.	.	.	.	.	2d/	.
=5	=5	=5	=5	=5	=5	=5	=5
1.E	A-	1B	-gnus	1E	-gnus	2e/	.
.	.	.	.	.	.	2.g/	.
.	.	2r	.	2.e\	De-	.	.
.	.	.	.	.	.	4e/	.
2AA/	-gnus	2A/	De-	.	.	2a/	.
.	.	.	.	4f\	.	.	.
=6	=6	=6	=6	=6	=6	=6	=6
2E\	De-	2c\	.	2e\	.	2g/	.
2F\	.	2A/	.	2d\	.	1a	.
1E	-i,	1B	.	1e	-i,	.	.
.	.	.	.	.	.	2g#i/	.
=7	=7	=7	=7	=7	=7	=7	=7
0r	.	1A	-i,	2.c\	A-	2a/	-i,
.	.	.	.	.	.	1e	A-
.	.	.	.	4B\	.	.	.
.	.	1c	A-	4A/	.	.	.
.	.	.	.	4G/	.	.	.
.	.	.	.	[2F/	.	[2a/	.
=8	=8	=8	=8	=8	=8	=8	=8
1.D	A-	1A	.	2F/]	.	4a/]	.
.	.	.	.	.	.	4g/	.
.	.	.	.	2D/	-gnus	4f/	.
.	.	.	.	.	.	4e/	.
.	.	1B	-gnus	2r	.	2.d/	.
2GG/	-gnus	.	.	[2d\	De-	.	.
.	.	.	.	.	.	4e/	.
=9	=9	=9	=9	=9	=9	=9	=9
2D\	De-	1r	.	2d\]	.	2f/	.
2E\	.	.	.	2c\	.	1g	.
1D	-i,	1A	De-	1d	.	.	.
.	.	.	.	.	.	2f/	.
=10	=10	=10	=10	=10	=10	=10	=10
1r	.	2c\	.	2A/	.	1e	-gnus
.	.	2A/	.	2c\	.	.	.
[1G	A-	1B	.	1G	-i,	1d	.
=11	=11	=11	=11	=11	=11	=11	=11
2G\]	.	1E	-i,	2r	.	2.g/	De-
2C/	-gnus	.	.	1g	A-	.	.
.	.	.	.	.	.	4a/	.
2G\	De-	1r	.	.	.	2b\	.
2A\	.	.	.	2f\	.	2cc\	.
=12	=12	=12	=12	=12	=12	=12	=12
1G	-i,	1B	A-	1g	.	2.dd\	.
.	.	.	.	.	.	4cc\	.
1r	.	1d	.	1f	-gnus	1a	.
=13	=13	=13	=13	=13	=13	=13	=13
1.E	A-	1B	-gnus	1e	.	1g	-i,
.	.	1c	.	2r	.	2.e/	De-
2AA/	-gnus	.	.	[2e\	De-	.	.
.	.	.	.	.	.	4f/	.
=14	=14	=14	=14	=14	=14	=14	=14
2E\	De-	1r	.	2e\]	.	2g/	.
2F\	.	.	.	2d\	.	1a	.
1E	-i,	1B	De-	1e	.	.	.
.	.	.	.	.	.	2g/	.
=15	=15	=15	=15	=15	=15	=15	=15
1F	De-	1A	.	1c	.	2a/	.
.	.	.	.	.	.	2cc\	.
2G\	.	1d	.	2G/	.	2b\	.
2F\	.	.	.	2D/	.	[2a/	.
=16	=16	=16	=16	=16	=16	=16	=16
2.D\	.	[0d	-i,	2F/	.	4a/]	.
.	.	.	.	.	.	4g/	.
.	.	.	.	2B-i\	.	1g	.
4GG/	.	.	.	.	.	.	.
1D	.	.	.	1A	.	.	.
.	.	.	.	.	.	2f#i/	.
=17	=17	=17	=17	=17	=17	=17	=17
2GG/	-i,	0d]	.	1G	-i,	1g	-i,
1G	A-	.	.	.	.	.	.
.	.	.	.	2r	.	1r	.
2F\	-gnus	.	.	2A/	A-	.	.
=18	=18	=18	=18	=18	=18	=18	=18
2E\	De-	1e	qui	2B\	.	0r	.
2.C/	.	.	.	2E/	-gnus	.	.
.	.	1d	.	1G	De-	.	.
4AA/	.	.	.	.	.	.	.
2BB/	.	.	.	.	.	.	.
=19	=19	=19	=19	=19	=19	=19	=19
2AA/	-i,	1c	tol-	1A	.	0r	.
1A	qui	.	.	.	.	.	.
.	.	1B	-lis	1E	-i,	.	.
2G\	.	.	.	.	.	.	.
=20	=20	=20	=20	=20	=20	=20	=20
2A\	tol-	2A/	pec-	0r	.	1.e	qui
1E	.	2B\	.	.	.	.	.
.	.	2c\	.	.	.	.	.
2D\	.	2d\	.	.	.	2f/	.
=21	=21	=21	=21	=21	=21	=21	=21
2E\	.	2c\	-ca-	0r	.	2.g/	tol-
2BB/	.	1B	.	.	.	.	.
.	.	.	.	.	.	4d/	.
1C	.	.	.	.	.	2g/	.
.	.	2A/	.	.	.	4f/	.
.	.	.	.	.	.	4e/	.
=22	=22	=22	=22	=22	=22	=22	=22
2.BB/	.	1B	-ta	2r	.	2.d/	.
.	.	.	.	1d	qui	.	.
4C/	.	.	.	.	.	4e/	.
2D\	.	1r	.	.	.	2f/	.
2E\	.	.	.	2c\	.	2g/	.
=23	=23	=23	=23	=23	=23	=23	=23
2D\	.	0r	.	2d\	tol-	4f/	.
.	.	.	.	.	.	4e/	.
2E\	.	.	.	1B	.	1e	.
1F	.	.	.	.	.	.	.
.	.	.	.	2A/	.	2d/	.
=24	=24	=24	=24	=24	=24	=24	=24
1E	-lis	0r	.	1B	-lis	1e	-lis
2r	.	.	.	2.d\	pec-	1r	.
2D\	pec-	.	.	.	.	.	.
.	.	.	.	8c\L	.	.	.
.	.	.	.	8B\J	.	.	.
=25	=25	=25	=25	=25	=25	=25	=25
4C/	-ca-	0r	.	4A/	.	0r	.
4BB/	.	.	.	4G/	.	.	.
4AA/	.	.	.	1c	-ca-	.	.
4GG/	.	.	.	.	.	.	.
2AA/	.	.	.	.	.	.	.
2C/	-ta	.	.	[2A/	.	.	.
=26	=26	=26	=26	=26	=26	=26	=26
1BB	mun-	0r	.	2A/]	.	2r	.
.	.	.	.	2d\	.	2g/	pec-
1AA	-di,	.	.	2c\	.	2.a/	-ca-
.	.	.	.	2A/	.	.	.
.	.	.	.	.	.	8g/L	.
.	.	.	.	.	.	8f/J	.
=27	=27	=27	=27	=27	=27	=27	=27
0r	.	0r	.	4G/	.	4e/	.
.	.	.	.	4F/	.	4d/	.
.	.	.	.	4E/	.	2.g/	.
.	.	.	.	4D/	.	.	.
.	.	.	.	2E/	.	.	.
.	.	.	.	.	.	4e/	.
.	.	.	.	2G/	-ta	[2e/	.
=28	=28	=28	=28	=28	=28	=28	=28
2r	.	0r	.	1F	mun-	2e/]	.
2D\	mun-	.	.	.	.	2d/	.
2.G\	.	.	.	1E	-di,	2e/	-ta
.	.	.	.	.	.	2g/	mun-
8F\L	.	.	.	.	.	.	.
8E\J	.	.	.	.	.	.	.
=29	=29	=29	=29	=29	=29	=29	=29
4D\	.	0r	.	0r	.	4f/	.
4C/	.	.	.	.	.	4e/	.
1F	.	.	.	.	.	4d/	.
.	.	.	.	.	.	4c/	.
.	.	.	.	.	.	2d/	.
2D\	.	.	.	.	.	2f/	.
=30	=30	=30	=30	=30	=30	=30	=30
1A	-di,	1r	.	1c	mun-	1e	-di,
1r	.	2r	.	2.d\	.	1r	.
.	.	2G/	pec-	.	.	.	.
.	.	.	.	8c\L	.	.	.
.	.	.	.	8B\J	.	.	.
=31	=31	=31	=31	=31	=31	=31	=31
0r	.	4F/	-ca-	4A/	.	0r	.
.	.	4E/	.	4G/	.	.	.
.	.	4D/	.	4F/	.	.	.
.	.	4C/	.	4E/	.	.	.
.	.	2D/	.	4F/	.	.	.
.	.	.	.	4D/	.	.	.
.	.	2F/	-ta	[2d\	.	.	.
=32	=32	=32	=32	=32	=32	=32	=32
0r	.	1E	mun-	2d\]	.	2r	.
.	.	.	.	2c\	-di,	2g/	mun-
.	.	1D	-di,	2r	.	2.a/	.
.	.	.	.	2d\	mun-	.	.
.	.	.	.	.	.	8g/L	.
.	.	.	.	.	.	8f/J	.
=33	=33	=33	=33	=33	=33	=33	=33
0r	.	0r	.	4c\	.	4e/	.
.	.	.	.	4B\	.	4d/	.
.	.	.	.	4A/	.	4c/	.
.	.	.	.	4G/	.	4B/	.
.	.	.	.	2A/	.	4c/	.
.	.	.	.	.	.	4A/	.
.	.	.	.	2c\	.	[2a/	.
=34	=34	=34	=34	=34	=34	=34	=34
2r	.	0r	.	1B	.	2a/]	.
2E\	pec-	.	.	.	.	2g#i/	.
2F\	-ca-	.	.	2A/	-di,	1a	-di,
2D\	-ta	.	.	[2f\	mun-	.	.
=35	=35	=35	=35	=35	=35	=35	=35
2d\	mun-	0r	.	2f\]	.	2r	.
2B\	.	.	.	2d\	.	2dd\	mun-
2A\	.	.	.	[1e	-di,	4cc\	.
.	.	.	.	.	.	4b\	.
[2c\	.	.	.	.	.	4a/	.
.	.	.	.	.	.	4g/	.
=36	=36	=36	=36	=36	=36	=36	=36
2c\]	.	0r	.	1e]	.	2a/	.
2A\	.	.	.	.	.	2cc\	.
1G	.	.	.	1e	mun-	1b	.
=37	=37	=37	=37	=37	=37	=37	=37
0F	-di,	0r	.	2.f\	.	0a	-di,
.	.	.	.	4e\	.	.	.
.	.	.	.	4d\	.	.	.
.	.	.	.	4c\	.	.	.
.	.	.	.	[2d\	.	.	.
=38	=38	=38	=38	=38	=38	=38	=38
4F\	mun-	0r	.	4d\]	.	0r	.
4E\	.	.	.	4c\	.	.	.
4D\	.	.	.	4B\	.	.	.
4C/	.	.	.	4A/	.	.	.
2D\	.	.	.	2B\	.	.	.
2AA/	.	.	.	[2A/	.	.	.
=39	=39	=39	=39	=39	=39	=39	=39
1BB	.	1d	mun-	2A/]	.	1r	.
.	.	.	.	2G#i/	.	.	.
2AA/	-di,	4c\	.	2A/	-di,	1e	mi-
.	.	4B\	.	.	.	.	.
2r	.	4A/	.	2r	.	.	.
.	.	4G/	.	.	.	.	.
=40	=40	=40	=40	=40	=40	=40	=40
0r	.	2A/	.	2D/	mi-	2f/	.
.	.	2c\	.	1A	.	2e/	-se-
.	.	1B	-di,	.	.	4g/	-re-
.	.	.	.	.	.	4f/	.
.	.	.	.	2G/	-se-	4e/	.
.	.	.	.	.	.	4d/	.
=41	=41	=41	=41	=41	=41	=41	=41
1r	.	2r	.	2A/	-re-	2.c/	.
.	.	2A/	mun-	2c\	.	.	.
.	.	.	.	.	.	4d/	.
2r	.	4G/	.	4B\	.	4e/	.
.	.	4F/	.	4A/	.	4d/	.
[2C/	mi-	4E/	.	[2c\	.	[2g/	.
.	.	4D/	.	.	.	.	.
=42	=42	=42	=42	=42	=42	=42	=42
2C/]	.	2E/	.	2c\]	.	4g/]	.
.	.	.	.	.	.	4e/	.
2C/	-se-	2G/	.	2c\	-re	1e	.
1D	-re-	1F	.	1A	.	.	.
.	.	.	.	.	.	2d/	.
=43	=43	=43	=43	=43	=43	=43	=43
1G	-re	1E	-di,	1.B	no-	2e/	-re,
.	.	.	.	.	.	2.g/	no-
[1E	no-	[1e	mi-	.	.	.	.
.	.	.	.	.	.	4e/	.
.	.	.	.	2G/	.	[2b\	.
=44	=44	=44	=44	=44	=44	=44	=44
2E\]	.	1e]	.	0g	-bis.	4b\]	.
.	.	.	.	.	.	4g/	.
2C/	.	.	.	.	.	1cc	.
2.G\	.	1d	-se-	.	.	.	.
.	.	.	.	.	.	2b\	.
4D\	.	.	.	.	.	.	.
=45	=45	=45	=45	=45	=45	=45	=45
1F	-bis.	4c\	-re-	2c\	no-	2a/	-bis,
.	.	4B\	.	.	.	.	.
.	.	4A/	.	1f	.	1cc	no-
.	.	4G/	.	.	.	.	.
1r	.	2A/	.	.	.	.	.
.	.	2c\	-re	2e\	.	[2a/	.
=46	=46	=46	=46	=46	=46	=46	=46
2r	.	1B	no-	2d\	.	2a/]	.
2E\	no-	.	.	1e	.	2g#i/	.
2C/	.	[1Al	-bis.	.	.	[1al	-bis.
2D\	.	.	.	2A/	.	.	.
=47	=47	=47	=47	=47	=47	=47	=47
0AAl	-bis.	0A]	.	0el	-bis.	0a]	.
!!LO:LB:i:g=z
=48||	=48||	=48||	=48||	=48||	=48||	=48||	=48||
*>B	*>B	*>B	*>B	*>B	*>B	*>B	*>B
*clefF4	*	*clefGv2	*	*clefGv2	*	*clefG2	*
*k[]	*	*k[]	*	*k[]	*	*k[]	*
*M2/1	*	*M2/1	*	*M2/1	*	*M2/1	*
*met(C|)	*	*met(C|)	*	*met(C|)	*	*met(C|)	*
!!section: Agnus Dei II
!!!OMD: Agnus Dei II
0r	.	0r	.	1A	A-	0A	A-
.	.	.	.	1c	-gnus	.	.
=49	=49	=49	=49	=49	=49	=49	=49
0r	.	0r	.	4c\	De-	0e	.
.	.	.	.	4B\	.	.	.
.	.	.	.	4A/	.	.	.
.	.	.	.	4G/	.	.	.
.	.	.	.	[1A	.	.	.
=50	=50	=50	=50	=50	=50	=50	=50
0r	.	0r	.	2A/]	.	0f	.
.	.	.	.	2D/	.	.	.
.	.	.	.	1d	-i,	.	.
=51	=51	=51	=51	=51	=51	=51	=51
0r	.	0r	.	2r	.	1e	-gnus
.	.	.	.	2c\	A-	.	.
.	.	.	.	2B\	-gnus	2d/	De-
.	.	.	.	[2c\	De-	[2e/	.
=52	=52	=52	=52	=52	=52	=52	=52
0r	.	0r	.	4c\]	.	2e/]	.
.	.	.	.	4A/	.	.	.
.	.	.	.	1A	.	4d/	.
.	.	.	.	.	.	4c/	.
.	.	.	.	.	.	1B	.
.	.	.	.	2G#i/	.	.	.
=53	=53	=53	=53	=53	=53	=53	=53
0AA	A-	1A	A-	1A	-i,	4A/	.
.	.	.	.	.	.	4B/	.
.	.	.	.	.	.	4c/	.
.	.	.	.	.	.	4d/	.
.	.	1c	-gnus	1r	.	2.e/	.
.	.	.	.	.	.	4f/	.
=54	=54	=54	=54	=54	=54	=54	=54
0E	.	0B	De-	0r	.	2g/	.
.	.	.	.	.	.	1a	.
.	.	.	.	.	.	2g#i/	.
=55	=55	=55	=55	=55	=55	=55	=55
0F	.	0A	-i,	2r	.	0a	-i,
.	.	.	.	2.c\	De-	.	.
.	.	.	.	4B\	.	.	.
.	.	.	.	[2A/	.	.	.
=56	=56	=56	=56	=56	=56	=56	=56
1E	-gnus	0r	.	2A/]	.	0r	.
.	.	.	.	2G/	.	.	.
1D	.	.	.	1F	.	.	.
=57	=57	=57	=57	=57	=57	=57	=57
0E	De-	0G#	De-	1E	-i,	0r	.
.	.	.	.	1r	.	.	.
=58	=58	=58	=58	=58	=58	=58	=58
0AA	-i,	0A	-i,	1e	A-	2r	.
.	.	.	.	.	.	2.cc\	A-
.	.	.	.	2e\	-gnus	.	.
.	.	.	.	.	.	4b\	.
.	.	.	.	[2f\	De-	[2a/	.
=59	=59	=59	=59	=59	=59	=59	=59
0r	.	0r	.	4f\]	.	2a/]	.
.	.	.	.	4e\	.	.	.
.	.	.	.	1e	.	2g/	.
.	.	.	.	.	.	1f	-gnus
.	.	.	.	2d\	.	.	.
=60	=60	=60	=60	=60	=60	=60	=60
0C	De-	0r	.	1e	-i,	2.e/	De-
.	.	.	.	.	.	4f/	.
.	.	.	.	1r	.	4g/	.
.	.	.	.	.	.	4a/	.
.	.	.	.	.	.	[2g/	.
=61	=61	=61	=61	=61	=61	=61	=61
1BB	.	0r	.	0r	.	4g/]	.
.	.	.	.	.	.	4f/	.
.	.	.	.	.	.	4e/	.
.	.	.	.	.	.	4d/	.
1AA	.	.	.	.	.	2c/	.
.	.	.	.	.	.	[2e/	.
=62	=62	=62	=62	=62	=62	=62	=62
0GG#	.	0r	.	0r	.	2e/]	.
.	.	.	.	.	.	4d/	.
.	.	.	.	.	.	4c/	.
.	.	.	.	.	.	1B	.
=63	=63	=63	=63	=63	=63	=63	=63
0AA	-i,	0e	qui	2.A/	qui	1A	-i,
.	.	.	.	4B\	.	.	.
.	.	.	.	4c\	.	1r	.
.	.	.	.	4d\	.	.	.
.	.	.	.	[2c\	tol-	.	.
=64	=64	=64	=64	=64	=64	=64	=64
0r	.	0A	.	4c\]	.	0r	.
.	.	.	.	4B\	.	.	.
.	.	.	.	4A/	.	.	.
.	.	.	.	4G/	.	.	.
.	.	.	.	2F/	.	.	.
.	.	.	.	[2A/	.	.	.
=65	=65	=65	=65	=65	=65	=65	=65
1r	.	0c	.	2A/]	.	0r	.
.	.	.	.	4G/	.	.	.
.	.	.	.	4F/	.	.	.
1AA	qui	.	.	1E	.	.	.
=66	=66	=66	=66	=66	=66	=66	=66
1.BB	tol-	1.d	tol-	1D	-lis	0r	.
.	.	.	.	1r	.	.	.
2C/	.	2c\	.	.	.	.	.
=67	=67	=67	=67	=67	=67	=67	=67
1D	-lis	1B	-lis	0r	.	0r	.
1D	pec-	1A	pec-	.	.	.	.
=68	=68	=68	=68	=68	=68	=68	=68
2.E\	-ca-	2.G#/	-ca-	0r	.	0r	.
4F\	.	4A/	.	.	.	.	.
4G\	.	4B\	.	.	.	.	.
4A\	.	4c\	.	.	.	.	.
[2G\	.	[2B\	.	.	.	.	.
=69	=69	=69	=69	=69	=69	=69	=69
4G\]	.	4B\]	.	0r	.	0r	.
4F\	.	4A/	.	.	.	.	.
4E\	.	4G/	.	.	.	.	.
4D\	.	4F/	.	.	.	.	.
2C/	.	2E/	.	.	.	.	.
[2E\	.	[2c\	.	.	.	.	.
=70	=70	=70	=70	=70	=70	=70	=70
2E\]	.	2c\]	.	1r	.	1r	.
4D\	.	1A	.	.	.	.	.
4C/	.	.	.	.	.	.	.
1BB	.	.	.	2r	.	1d	qui
.	.	2G#i/	.	2D/	qui	.	.
=71	=71	=71	=71	=71	=71	=71	=71
1AA	-ta	1A	-ta	2.E/	tol-	1c	tol-
.	.	.	.	4F/	.	.	.
1r	.	1r	.	2G/	.	2B/	.
.	.	.	.	[2A/	.	[2c/	.
=72	=72	=72	=72	=72	=72	=72	=72
0r	.	1r	.	2A/]	.	2c/]	.
.	.	.	.	4G/	.	4B/	.
.	.	.	.	4F/	.	4A/	.
.	.	1B	qui	1E	-lis	1G	-lis
=73	=73	=73	=73	=73	=73	=73	=73
1E	qui	2c\	tol-	0r	.	1r	.
.	.	1B	.	.	.	.	.
1E	tol-	.	.	.	.	2G/	qui
.	.	2E/	.	.	.	[2c/	tol-
=74	=74	=74	=74	=74	=74	=74	=74
1D	.	1F	.	1r	.	2c/]	.
.	.	.	.	.	.	4B/	.
.	.	.	.	.	.	4A/	.
1E	-lis	1E	-lis	2B\	qui	1G	-lis
.	.	.	.	2c\	.	.	.
=75	=75	=75	=75	=75	=75	=75	=75
0r	.	1G	pec-	2B\	.	0r	.
.	.	.	.	2.e\	tol-	.	.
.	.	2A/	-ca-	.	.	.	.
.	.	.	.	4d\	.	.	.
.	.	[2G/	.	[2B\	.	.	.
=76	=76	=76	=76	=76	=76	=76	=76
0r	.	2G/]	.	2B\]	.	1g	pec-
.	.	2C/	.	1c	.	.	.
.	.	1D	.	.	.	1f	.
.	.	.	.	2B\	.	.	.
=77	=77	=77	=77	=77	=77	=77	=77
0r	.	2C/	-ta	2c\	-lis	1e	-ca-
.	.	1c	pec-	2C/	pec-	.	.
.	.	.	.	1D	.	1f	.
.	.	2B\	.	.	.	.	.
=78	=78	=78	=78	=78	=78	=78	=78
0r	.	2c\	-ca-	2C/	-ca-	2e/	-ta
.	.	2.A/	.	2D/	.	2f/	mun-
.	.	.	.	2C/	-ta	2e/	.
.	.	4G/	.	.	.	.	.
.	.	[2A/	.	[2c\	mun-	[2f/	.
=79	=79	=79	=79	=79	=79	=79	=79
0r	.	2A/]	.	4c\]	.	4f/]	.
.	.	.	.	4B\	.	4e/	.
.	.	2E/	-ta	1B	.	1e	.
.	.	1F	mun-	.	.	.	.
.	.	.	.	2A/	.	2d/	.
=80	=80	=80	=80	=80	=80	=80	=80
1r	.	1E	-di,	2.B\	.	0e	-di,
.	.	.	.	4A/	.	.	.
1E	pec-	1r	.	2B\	.	.	.
.	.	.	.	[2c\	.	.	.
=81	=81	=81	=81	=81	=81	=81	=81
1E	-ca-	0r	.	4c\]	.	0r	.
.	.	.	.	4B\	.	.	.
.	.	.	.	2G/	.	.	.
1F	.	.	.	1A	-di,	.	.
=82	=82	=82	=82	=82	=82	=82	=82
1.G	.	1B	mun-	4E/	mun-	0r	.
.	.	.	.	4F/	.	.	.
.	.	.	.	4G/	.	.	.
.	.	.	.	4A/	.	.	.
.	.	1G	-di,	4B\	.	.	.
.	.	.	.	4c\	.	.	.
4F\	.	.	.	4d\	.	.	.
4E\	.	.	.	4e\	.	.	.
=83	=83	=83	=83	=83	=83	=83	=83
2D\	.	2r	.	2f\	.	0r	.
2E\	.	1B	mun-	1e	.	.	.
1F	.	.	.	.	.	.	.
.	.	2A/	.	2d\	.	.	.
=84	=84	=84	=84	=84	=84	=84	=84
[0E	-ta	2c\	.	1e	-di,	1.g	mi-
.	.	1B	.	.	.	.	.
.	.	.	.	2r	.	.	.
.	.	2A/	.	[2e\	mi-	2a/	-se-
=85	=85	=85	=85	=85	=85	=85	=85
0E_	.	1G	-di,	4e\]	.	1.b	-re-
.	.	.	.	4d\	.	.	.
.	.	.	.	2e\	.	.	.
.	.	2r	.	2B\	.	.	.
.	.	[2G/	mi-	2c\	-se-	2e/	.
=86	=86	=86	=86	=86	=86	=86	=86
0E_	.	2G/]	.	2B\	-re-	2b\	.
.	.	2A/	-se-	1e	.	2cc\	.
.	.	2.G/	-re-	.	.	1b	-re
.	.	.	.	[2e\	-re	.	.
.	.	4A/	.	.	.	.	.
=87	=87	=87	=87	=87	=87	=87	=87
0E_	.	2B\	.	4e\]	.	0r	.
.	.	.	.	4f\	.	.	.
.	.	2E/	.	1g	.	.	.
.	.	2B\	.	.	.	.	.
.	.	2c\	.	2e\	.	.	.
=88	=88	=88	=88	=88	=88	=88	=88
0E_	.	1B	-re	2.e\	mi-	2.g/	mi-
.	.	.	.	4f\	.	4a/	.
.	.	1r	.	2g\	.	2b\	.
.	.	.	.	2c\	-se-	2e/	-se-
=89	=89	=89	=89	=89	=89	=89	=89
0E]	.	2.E/	no-	2g\	-re-	2b\	-re-
.	.	.	.	1e	.	2cc\	.
.	.	4F/	.	.	.	.	.
.	.	2G/	.	.	.	2b\	-re
.	.	4C/	.	[2e\	-re	[2cc\	no-
.	.	4D/	.	.	.	.	.
=90	=90	=90	=90	=90	=90	=90	=90
[0E	mun-	4E/	.	2e\]	.	2cc\]	.
.	.	4F/	.	.	.	.	.
.	.	4G/	.	2e\	no-	4b\	.
.	.	4A/	.	.	.	4a/	.
.	.	2B\	.	1e	-bis.	2g/	.
.	.	2c\	.	.	.	2a/	.
=91	=91	=91	=91	=91	=91	=91	=91
0E]	.	2B\	.	1r	.	2g/	.
.	.	2A/	.	.	.	1a	.
.	.	1B	.	1e	no-	.	.
.	.	.	.	.	.	2g#i/	.
=92	=92	=92	=92	=92	=92	=92	=92
0AA	-di,	1A	-bis.	2c\	.	1a	-bis.
.	.	.	.	2.e\	.	.	.
.	.	2.E/	no-	.	.	2r	.
.	.	.	.	4d\	.	.	.
.	.	.	.	2c\	.	[2e/	no-
.	.	4F/	.	.	.	.	.
=93	=93	=93	=93	=93	=93	=93	=93
1r	.	2G/	.	2B\	.	4e/]	.
.	.	.	.	.	.	4f/	.
.	.	2C/	.	1c	.	2g/	.
1AA	mi-	2E/	.	.	.	1c	-bis.
.	.	2F/	.	2A/	.	.	.
=94	=94	=94	=94	=94	=94	=94	=94
1AA	-se-	1E	.	1A	-bis.	2r	.
.	.	.	.	.	.	2c/	no-
1BB	.	1D	-bis.	2r	.	2.d/	.
.	.	.	.	2d\	no-	.	.
.	.	.	.	.	.	4c/	.
=95	=95	=95	=95	=95	=95	=95	=95
1.C	-re-	1r	.	2.e\	.	2A/	.
.	.	.	.	.	.	2G/	.
.	.	.	.	4f\	.	.	.
.	.	2.E/	no-	2g\	.	1c	.
4BB/	.	.	.	2c\	.	.	.
4AA/	.	4F/	.	.	.	.	.
=96	=96	=96	=96	=96	=96	=96	=96
2GG/	.	2G/	.	2d\	.	2B/	.
2AA/	-re	2E/	.	2c\	.	1A	.
1BB	no-	1D	.	1d	.	.	.
.	.	.	.	.	.	2G#i/	.
=97	=97	=97	=97	=97	=97	=97	=97
[0AAl	-bis.	1C	-bis.	1e	-bis.	2A/	-bis.
.	.	.	.	.	.	1a	no-
.	.	2F/	no-	1r	.	.	.
.	.	2E/	.	.	.	4g/	.
.	.	.	.	.	.	4f/	.
=98	=98	=98	=98	=98	=98	=98	=98
0AA]	.	0Al	-bis.	0cl	bis.	0el	-bis.
!!LO:LB:i:g=z
=99||	=99||	=99||	=99||	=99||	=99||	=99||	=99||
*>C	*>C	*>C	*>C	*>C	*>C	*>C	*>C
*clefF4	*	*clefGv2	*	*clefGv2	*	*clefG2	*
*k[]	*	*k[]	*	*k[]	*	*k[]	*
*M2/1	*	*M2/1	*	*M2/1	*	*M2/1	*
*met(C|)	*	*met(C|)	*	*met(C|)	*	*met(C|)	*
!!section: Agnus Dei III
!!!OMD: Agnus Dei III
!	!	!LO:TX:X=-40:Z=28:t=Canon. Gradatim descende	!	!	!	!	!
!	!	!LO:TX:X=-40:Z=8:t=(T pattern sung four times, with each successive statement at a lower pitch level and in smaller note values.)	!	!	!	!	!
0r	.	0r	.	[0e	A-	0r	.
=100	=100	=100	=100	=100	=100	=100	=100
[0A	A-	0r	.	1e]	.	0r	.
.	.	.	.	1A	-gnus	.	.
=101	=101	=101	=101	=101	=101	=101	=101
1A]	.	0r	.	1e	De-	0r	.
1D	-gnus	.	.	1f	.	.	.
=102	=102	=102	=102	=102	=102	=102	=102
1A	De-	0r	.	1e	.	0r	.
1B-	.	.	.	1d	.	.	.
=103	=103	=103	=103	=103	=103	=103	=103
1A	-i,	[0e/	A-	1c	-i,	0r	.
[1E	De-	.	.	2B\	A-	.	.
.	.	.	.	2E/	-gnus	.	.
=104	=104	=104	=104	=104	=104	=104	=104
1E]	.	0e_/	.	1B	De-	0r	.
1AA	.	.	.	1c	.	.	.
=105	=105	=105	=105	=105	=105	=105	=105
0E	-i,	0e_/	.	1B	-i,	1.b	A-
.	.	.	.	1G#	A-	.	.
.	.	.	.	.	.	2e/	-gnus
=106	=106	=106	=106	=106	=106	=106	=106
0r	.	0e_/	.	1E	.	1b	De-
.	.	.	.	1A	.	1cc	.
=107	=107	=107	=107	=107	=107	=107	=107
1E	A-	0e_/	.	1G	.	1b	.
1AA	-gnus	.	.	1c	.	1a	.
=108	=108	=108	=108	=108	=108	=108	=108
0E	De-	0e]/	.	1B	.	0g#	-i,
.	.	.	.	1B	-gnus	.	.
=109	=109	=109	=109	=109	=109	=109	=109
0F	-i,	[0A	-gnus	2A/	De-	1cc	A-
.	.	.	.	2F/	-i,	.	.
.	.	.	.	2r	.	2b\	-gnus
.	.	.	.	[2f\	De-	[2a/	De-
=110	=110	=110	=110	=110	=110	=110	=110
0r	.	0A]	.	2f\]	.	2a/]	.
.	.	.	.	4e\	.	4g/	.
.	.	.	.	4d\	.	4f/	.
.	.	.	.	1c	-i,	1e	-i,
=111	=111	=111	=111	=111	=111	=111	=111
2.c\	qui	[0e	De-	0r	.	0r	.
4B\	.	.	.	.	.	.	.
2G\	.	.	.	.	.	.	.
[2A\	tol-	.	.	.	.	.	.
=112	=112	=112	=112	=112	=112	=112	=112
2A\]	.	0e]	.	0c#	qui	0r	.
4G\	.	.	.	.	.	.	.
4F\	.	.	.	.	.	.	.
2E\	.	.	.	.	.	.	.
2A\	.	.	.	.	.	.	.
=113	=113	=113	=113	=113	=113	=113	=113
[0D	.	[0f	.	[0d	tol-	0a	qui
=114	=114	=114	=114	=114	=114	=114	=114
0D]	.	0f]	.	0d]	.	1f	.
.	.	.	.	.	.	[1a	tol-
=115	=115	=115	=115	=115	=115	=115	=115
0E	-lis	[0e	-i,	0B	.	2a/]	.
.	.	.	.	.	.	4g/	.
.	.	.	.	.	.	4f/	.
.	.	.	.	.	.	1g	.
=116	=116	=116	=116	=116	=116	=116	=116
0r	.	0e_	.	1A	.	1cc	.
.	.	.	.	1G	.	1b	.
=117	=117	=117	=117	=117	=117	=117	=117
0r	.	0e_	.	1c	.	1g	.
.	.	.	.	1A	.	[1a	.
=118	=118	=118	=118	=118	=118	=118	=118
0E	pec-	0e]	.	0B	.	2a/]	.
.	.	.	.	.	.	4g#i/	.
.	.	.	.	.	.	4f#i/	.
.	.	.	.	.	.	1g#i	.
=119	=119	=119	=119	=119	=119	=119	=119
0AA	.	0r	.	1A	-lis	1a	-lis
.	.	.	.	[1e	pec-	1cc	pec-
=120	=120	=120	=120	=120	=120	=120	=120
1E	-ca-	0r	.	2e\]	.	2b\	-ca-
.	.	.	.	4d\	.	1cc	.
.	.	.	.	4c\	.	.	.
1F	.	.	.	1d	.	.	.
.	.	.	.	.	.	4b\	.
.	.	.	.	.	.	4a/	.
=121	=121	=121	=121	=121	=121	=121	=121
2.E\	.	0r	.	1e	-ca-	2.g/	.
4F\	.	.	.	.	.	4a/	.
2G\	.	.	.	2d\	.	2b\	.
2C/	.	.	.	[2e\	.	[2cc\	.
=122	=122	=122	=122	=122	=122	=122	=122
1G	.	0r	.	4e\]	.	2cc\]	.
.	.	.	.	4f\	.	.	.
.	.	.	.	1g	.	2b\	.
1A	.	.	.	.	.	1cc	-ta
.	.	.	.	2f#i\	.	.	.
=123	=123	=123	=123	=123	=123	=123	=123
1G	-ta	[0d	qui	1g	-ta	1b	mun-
2D\	pec-	.	.	2r	.	2a/	.
[2G\	-ca-	.	.	[2d\	mun-	[2b\	.
=124	=124	=124	=124	=124	=124	=124	=124
2G\]	.	0d_	.	2d\]	.	2b\]	.
2G\	-ta	.	.	2B\	.	1g	.
1D	mun-	.	.	1A	.	.	.
.	.	.	.	.	.	2f#i/	.
=125	=125	=125	=125	=125	=125	=125	=125
1.GG	.	0d]	.	2.G/	.	1g	-di,
.	.	.	.	4A/	.	.	.
.	.	.	.	2B\	.	1r	.
2AA/	.	.	.	2c\	.	.	.
=126	=126	=126	=126	=126	=126	=126	=126
2BB/	.	0G	.	2d\	.	0r	.
2.C/	.	.	.	2.e\	.	.	.
4D\	.	.	.	4d\	.	.	.
2E\	.	.	.	4c\	.	.	.
.	.	.	.	4B\	.	.	.
=127	=127	=127	=127	=127	=127	=127	=127
4F\	.	0d	tol-	1A	.	0r	.
4E\	.	.	.	.	.	.	.
4D\	.	.	.	.	.	.	.
4C/	.	.	.	.	.	.	.
1BB	.	.	.	1B	-di,	.	.
=128	=128	=128	=128	=128	=128	=128	=128
0C	-di,	0e	.	2G/	mun-	1.g	pec-
.	.	.	.	2.c\	.	.	.
.	.	.	.	4B\	.	.	.
.	.	.	.	[2A/	.	[2cc\	-ca-
=129	=129	=129	=129	=129	=129	=129	=129
0r	.	[0d	-lis	4A/]	.	2cc\]	.
.	.	.	.	4B\	.	.	.
.	.	.	.	1G	.	4b\	.
.	.	.	.	.	.	4a/	.
.	.	.	.	.	.	2b\	.
.	.	.	.	2F/	.	2a/	-ta,
=130	=130	=130	=130	=130	=130	=130	=130
1r	.	0d]	.	1G	-di,	2r	.
.	.	.	.	.	.	1b	mun-
1G	mun-	.	.	2r	.	.	.
.	.	.	.	[2d\	mun-	4a/	.
.	.	.	.	.	.	4g/	.
=131	=131	=131	=131	=131	=131	=131	=131
2F\	.	0r	.	2d\]	.	2a/	.
2E\	.	.	.	2B\	.	2g/	-di,
1C	-di,	.	.	2.e\	.	2r	.
.	.	.	.	.	.	[2g/	mun-
.	.	.	.	4d\	.	.	.
=132	=132	=132	=132	=132	=132	=132	=132
2r	.	0r	.	2B\	.	2g/]	.
2C/	mun-	.	.	2c\	.	4f/	.
.	.	.	.	.	.	4e/	.
2D\	.	.	.	2B\	.	2f/	.
2C/	.	.	.	[2c\	.	[2e/	.
=133	=133	=133	=133	=133	=133	=133	=133
1AA	.	0r	.	2c\]	.	2e/]	.
.	.	.	.	2A/	.	4d/	.
.	.	.	.	.	.	4c/	.
2BB/	.	.	.	2G/	.	2d/	.
2AA/	.	.	.	2A/	.	[2c/	.
=134	=134	=134	=134	=134	=134	=134	=134
2C/	.	0r	.	2E/	.	2c/]	.
2D\	.	.	.	2F/	.	1A	.
1BB	.	.	.	1D	.	.	.
.	.	.	.	.	.	2G#i/	.
=135	=135	=135	=135	=135	=135	=135	=135
0AA	-di,	[0c	pec-	1E	-di,	1A	-di,
.	.	.	.	1r	.	1a	do-
=136	=136	=136	=136	=136	=136	=136	=136
0r	.	1c]	.	2.A/	do-	1cc	.
.	.	.	.	4B\	.	.	.
.	.	1F	-ca-	2c\	.	1a	-na
.	.	.	.	2d\	.	.	.
=137	=137	=137	=137	=137	=137	=137	=137
0r	.	1c	-ta	1e	.	2g/	no-
.	.	.	.	.	.	2.cc\	.
.	.	1d	mun-	[1f	.	.	.
.	.	.	.	.	.	4b\	.
.	.	.	.	.	.	[2a/	.
=138	=138	=138	=138	=138	=138	=138	=138
0r	.	0c	-di,	2f\]	.	2a/]	.
.	.	.	.	2e\	.	4g/	.
.	.	.	.	.	.	4f/	.
.	.	.	.	1e	-na	1g	.
=139	=139	=139	=139	=139	=139	=139	=139
1r	.	0r	.	2f\	no-	2a/	.
.	.	.	.	1e	.	2g/	.
1D	do-	.	.	.	.	1f	.
.	.	.	.	2d\	.	.	.
=140	=140	=140	=140	=140	=140	=140	=140
1A	.	0r	.	[0e	-bis	1e	-bis
2.E\	.	.	.	.	.	2r	.
.	.	.	.	.	.	[2b\	do-
4F\	.	.	.	.	.	.	.
=141	=141	=141	=141	=141	=141	=141	=141
2G\	.	0r	.	0e]	.	2b\]	.
2A\	.	.	.	.	.	2e/	-na
2G\	.	.	.	.	.	2b\	no-
2C/	-na	.	.	.	.	2cc\	.
=142	=142	=142	=142	=142	=142	=142	=142
1G	no-	0r	.	1d	no-	1b	.
1c	.	.	.	1e	.	1g	-bis
=143	=143	=143	=143	=143	=143	=143	=143
1G	-bis	1.B	do-	1g	-bis	1dd	do-
2r	.	.	.	2r	.	2g/	-na
[2G\	no-	2E/	-na	[2g\	no-	[2b\	no-
=144	=144	=144	=144	=144	=144	=144	=144
2G\]	.	2B\	no-	2g\]	.	4b\]	.
.	.	.	.	.	.	4a/	.
2A\	.	2c\	.	2e\	.	2a/	.
[1E	-bis	1B	-bis	1e	-bis	2.g/	.
.	.	.	.	.	.	4a/	.
=145	=145	=145	=145	=145	=145	=145	=145
1E]	.	0r	.	2r	.	2b\	.
.	.	.	.	1e	do-	2e/	.
1r	.	.	.	.	.	2b\	.
.	.	.	.	2A/	-na	2cc\	.
=146	=146	=146	=146	=146	=146	=146	=146
1r	.	0r	.	2e\	no-	2b\	.
.	.	.	.	2f\	.	2a/	.
1AA	bis	.	.	2e\	-bis	1cc	-bis
.	.	.	.	[2E/	pa-	.	.
=147	=147	=147	=147	=147	=147	=147	=147
2r	.	0r	.	4E/]	.	4c/	pa-
.	.	.	.	4F/	.	4d/	.
1E	pa-	.	.	4G/	.	4e/	.
.	.	.	.	4A/	.	4f/	.
.	.	.	.	2B\	.	2g/	.
2AA/	.	.	.	2A/	.	2a/	.
=148	=148	=148	=148	=148	=148	=148	=148
2E\	.	0r	.	2G/	.	2b\	.
2F\	.	.	.	2A/	.	2.a/	.
1E	.	.	.	1B	.	.	.
.	.	.	.	.	.	4g#i/	.
.	.	.	.	.	.	4g#i/	.
.	.	.	.	.	.	4f#i/	.
=149	=149	=149	=149	=149	=149	=149	=149
0AAl	-cem.	0Al	cem.	0Al	-cem.	0al	-cem.
==	==	==	==	==	==	==	==
*-	*-	*-	*-	*-	*-	*-	*-
!!!RDF**kern: l=long note in original notation
!!!RDF**kern: i=editorial accidental
!!!ENC:	Jesse Rodin 8/9/2013
!!!END:	2013/08/09/
!!!EED:	Jesse Rodin
!!!EEV:	2013/08/10/
!!!ONB:	Translated from MusicXML and edited on 2013/08/10/ by Craig Sapp
!!muse2ps: T^@{OPR}^u^@{ONM}{. }@{OTL}^C^@{COM}^i2I150v85,85,85,130c200
